svgs/sharp-solid/pen-field.svg

<svg xmlns="http://www.w3.org/2000/svg" viewBox="0 0 640 512"><!--! Font Awesome Pro 6.6.0 by @fontawesome - https://fontawesome.com License - https://fontawesome.com/license (Commercial License) Copyright 2024 Fonticons, Inc. --><path d="M304 240L288 352l112-16L564.7 171.3l-96-96L304 240zM640 96L544 0 491.3 52.7l96 96L640 96zM32 128L0 128l0 32L0 480l0 32 32 0 512 0 32 0 0-32 0-160 0-32-64 0 0 32 0 128L64 448l0-256 192 0 32 0 0-64-32 0L32 128zM96 288l0 64 64 0 0-64-64 0zm160 0l-64 0 0 64 64 0 0-64z"/></svg>

<svg xmlns="http://www.w3.org/2000/svg" viewBox="0 0 640 512"><!--! Font Awesome Pro 6.4.0 by @fontawesome - https://fontawesome.com License - https://fontawesome.com/license (Commercial License) Copyright 2023 Fonticons, Inc. --><path d="M304 240L288 352l112-16L564.7 171.3l-96-96L304 240zM640 96L544 0 491.3 52.7l96 96L640 96zM32 128H0v32V480v32H32 544h32V480 320 288H512v32V448H64V192H256h32V128H256 32zM96 288v64h64V288H96zm160 0H192v64h64V288z"/></svg>
